X: 56
T:Monaghan Twig, The****
M:C|
L:1/8
R:reel
D:Dervish: The Boys of Sligo
D:Paddy Keenan: Port an Phiobaire
D:Arcady
Z:id:hn-reel-238
K:Amix
cAAB cded|cAAG ~E3B|cAAB cded|BAGB d2ed:|
cdef gfed|(3Bcd ef ~e3d|cdef ~g3e|dBGB d2ed|
cded cded|cAAB cdef|~g3e deed|BAGB d2ed||
"Variations:"
~A3B cAed|cAAG E^DEB|~A3B cAed|BAGB dfed|
A2AG Acec|~A3G ~E3B|cAAB cded|BAGB dfed||
(3Bcd ef gfed|cdef ~e3d|(3Bcd ef g2ed|BAGB dfed|
(3Bcd ed cded|cAAB cdef|gfge d2ed|BAGB dfed||

